src/components/LayerToggle/icons/admin_icon.svg

<svg width="25" height="25" version="1.1" viewBox="0 0 25 25" xmlns="http://www.w3.org/2000/svg">
 <path d="m10 1v2.3438c-1.4775 0.40278-2.8089 1.1514-3.9062 2.1562l-2.584-1.5-2.5098 4.3242 2.4141 1.4004c-0.26805 0.87836-0.41406 1.8093-0.41406 2.7754 0 0.91616 0.13689 1.7985 0.37891 2.6367l-2.3789 1.3125 2.416 4.3789 2.5742-1.4219c1.1164 1.0526 2.486 1.8346 4.0098 2.25v2.3438h5v-2.3438c1.5467-0.42164 2.9352-1.2203 4.0605-2.2969l2.5352 1.4707 2.5078-4.3242-2.4668-1.4316c0.23069-0.81993 0.36328-1.6805 0.36328-2.5742 0-0.9626-0.14591-1.89-0.41211-2.7656l2.4551-1.3574-2.416-4.377-2.627 1.4492 0.15234 0.27539c-1.1408-1.1202-2.5644-1.948-4.1523-2.3809v-2.3438z" fill="#ffcb21"/>
 <path d="m22.933 17.612-0.8267 1.4433c-0.2284 0.3992-0.7334 0.535-1.1292 0.305l-2.2958-1.3367c-1.165 1.3259-2.7408 2.2759-4.5292 2.6425v1.8342c0 0.4608-0.3692 0.8333-0.8258 0.8333h-1.6533c-0.4567 0-0.8259-0.3725-0.8259-0.8333v-1.8342c-1.7883-0.3666-3.3642-1.3166-4.5292-2.6425l-2.2958 1.3367c-0.39584 0.23-0.90084 0.0942-1.1292-0.305l-0.82667-1.4433c-0.22833-0.3984-0.0925-0.9084 0.3025-1.1375l2.305-1.3434c-0.27416-0.8283-0.43833-1.7091-0.43833-2.6308s0.16417-1.8017 0.43833-2.6308l-2.305-1.3425c-0.395-0.23-0.53083-0.73916-0.3025-1.1383l0.82667-1.4433c0.22833-0.39833 0.73333-0.535 1.1292-0.305l2.2958 1.3367c1.165-1.3258 2.7408-2.2758 4.5292-2.6425v-1.8342c0-0.46083 0.3692-0.83333 0.8259-0.83333h1.6533c0.4566 0 0.8258 0.3725 0.8258 0.83333v1.8342c1.7884 0.36666 3.3642 1.3167 4.5292 2.6425l2.2958-1.3367c0.3958-0.23 0.9008-0.09333 1.1292 0.305l0.8267 1.4433c0.2283 0.39917 0.0924 0.90833-0.3026 1.1383l-2.305 1.3425c0.2742 0.82914 0.4384 1.7091 0.4384 2.6308s-0.1642 1.8025-0.4384 2.6308l2.305 1.3434c0.395 0.2291 0.5309 0.7391 0.3026 1.1375zm1.2399-2.165-1.9358-1.1267c0.1083-0.5917 0.18-1.1958 0.18-1.82 0-0.6233-0.0717-1.2283-0.18-1.82l1.9358-1.1267c0.7909-0.46 1.0609-1.48 0.6042-2.2767l-1.6525-2.8867c-0.4558-0.79666-1.4675-1.0708-2.2575-0.60999l-1.9558 1.1375c-0.9134-0.78333-1.9517-1.4242-3.1058-1.8367v-1.4142c0-0.92-0.74-1.6667-1.6534-1.6667h-3.305c-0.91332 0-1.6533 0.74667-1.6533 1.6667v1.4142c-1.1542 0.4125-2.1925 1.0533-3.1058 1.8367l-1.9558-1.1375c-0.79001-0.46083-1.8017-0.18667-2.2575 0.60999l-1.6525 2.8867c-0.45667 0.79667-0.18584 1.8167 0.60416 2.2767l1.9358 1.1267c-0.10834 0.5917-0.18001 1.1967-0.18001 1.82 0 0.6242 0.07167 1.2283 0.18001 1.82l-1.9358 1.1267c-0.79 0.46-1.0608 1.48-0.60416 2.2766l1.6525 2.8867c0.45583 0.7967 1.4675 1.0708 2.2575 0.61l1.9558-1.1375c0.91333 0.7833 1.9517 1.425 3.1058 1.8367v1.4141c0 0.92 0.74 1.6667 1.6533 1.6667h3.305c0.9134 0 1.6534-0.7467 1.6534-1.6667v-1.4141c1.1541-0.4117 2.1924-1.0534 3.1058-1.8367l1.9558 1.1375c0.79 0.4608 1.8017 0.1867 2.2575-0.61l1.6525-2.8867c0.4567-0.7966 0.1867-1.8166-0.6042-2.2766zm-11.673-0.4467c-1.3692 0-2.4791-1.1192-2.4791-2.5 0-1.38 1.1099-2.5 2.4791-2.5s2.4792 1.12 2.4792 2.5c0 1.3808-1.11 2.5-2.4792 2.5zm0-6.6667c-2.2825 0-4.1316 1.865-4.1316 4.1667s1.8492 4.1667 4.1316 4.1667 4.1325-1.865 4.1325-4.1667-1.85-4.1667-4.1325-4.1667z" fill="#FFFFFE"/>
</svg>

<svg width="25" height="25" viewBox="0 0 25 25" fill="none" xmlns="http://www.w3.org/2000/svg"><path d="M22.9328 17.6117L22.1061 19.055C21.8777 19.4542 21.3727 19.59 20.9769 19.36L18.6811 18.0233C17.5161 19.3492 15.9403 20.2992 14.1519 20.6658V22.5C14.1519 22.9608 13.7827 23.3333 13.3261 23.3333H11.6728C11.2161 23.3333 10.8469 22.9608 10.8469 22.5V20.6658C9.05858 20.2992 7.48275 19.3492 6.31775 18.0233L4.02192 19.36C3.62608 19.59 3.12108 19.4542 2.89275 19.055L2.06608 17.6117C1.83775 17.2133 1.97358 16.7033 2.36858 16.4742L4.67358 15.1308C4.39942 14.3025 4.23525 13.4217 4.23525 12.5C4.23525 11.5783 4.39942 10.6983 4.67358 9.86916L2.36858 8.52666C1.97358 8.29666 1.83775 7.7875 2.06608 7.38833L2.89275 5.945C3.12108 5.54667 3.62608 5.41 4.02192 5.64L6.31775 6.97667C7.48275 5.65084 9.05858 4.70082 10.8469 4.33416V2.5C10.8469 2.03917 11.2161 1.66667 11.6728 1.66667H13.3261C13.7827 1.66667 14.1519 2.03917 14.1519 2.5V4.33416C15.9403 4.70082 17.5161 5.65084 18.6811 6.97667L20.9769 5.64C21.3727 5.41 21.8777 5.54667 22.1061 5.945L22.9328 7.38833C23.1611 7.7875 23.0252 8.29666 22.6302 8.52666L20.3252 9.86916C20.5994 10.6983 20.7636 11.5783 20.7636 12.5C20.7636 13.4217 20.5994 14.3025 20.3252 15.1308L22.6302 16.4742C23.0252 16.7033 23.1611 17.2133 22.9328 17.6117ZM24.1727 15.4467L22.2369 14.32C22.3452 13.7283 22.4169 13.1242 22.4169 12.5C22.4169 11.8767 22.3452 11.2717 22.2369 10.68L24.1727 9.55332C24.9636 9.09332 25.2336 8.07333 24.7769 7.27666L23.1244 4.39C22.6686 3.59334 21.6569 3.31918 20.8669 3.78001L18.9111 4.9175C17.9977 4.13417 16.9594 3.49333 15.8053 3.08083V1.66667C15.8053 0.746667 15.0653 0 14.1519 0H10.8469C9.93358 0 9.19358 0.746667 9.19358 1.66667V3.08083C8.03941 3.49333 7.00108 4.13417 6.08775 4.9175L4.13192 3.78001C3.34191 3.31918 2.33025 3.59334 1.87442 4.39L0.221914 7.27666C-0.234753 8.07333 0.036079 9.09332 0.826079 9.55332L2.76192 10.68C2.65358 11.2717 2.58191 11.8767 2.58191 12.5C2.58191 13.1242 2.65358 13.7283 2.76192 14.32L0.826079 15.4467C0.036079 15.9067 -0.234753 16.9267 0.221914 17.7233L1.87442 20.61C2.33025 21.4067 3.34191 21.6808 4.13192 21.22L6.08775 20.0825C7.00108 20.8658 8.03941 21.5075 9.19358 21.9192V23.3333C9.19358 24.2533 9.93358 25 10.8469 25H14.1519C15.0653 25 15.8053 24.2533 15.8053 23.3333V21.9192C16.9594 21.5075 17.9977 20.8658 18.9111 20.0825L20.8669 21.22C21.6569 21.6808 22.6686 21.4067 23.1244 20.61L24.7769 17.7233C25.2336 16.9267 24.9636 15.9067 24.1727 15.4467ZM12.4994 15C11.1302 15 10.0203 13.8808 10.0203 12.5C10.0203 11.12 11.1302 10 12.4994 10C13.8686 10 14.9786 11.12 14.9786 12.5C14.9786 13.8808 13.8686 15 12.4994 15ZM12.4994 8.33333C10.2169 8.33333 8.36775 10.1983 8.36775 12.5C8.36775 14.8017 10.2169 16.6667 12.4994 16.6667C14.7819 16.6667 16.6319 14.8017 16.6319 12.5C16.6319 10.1983 14.7819 8.33333 12.4994 8.33333Z" fill="#FFFFFE"/></svg>
